!!!COM: Palestrina, Giovanni Perluigi da
!!!OPR: O Regem coeli
!!!OTL: Credo
**kern	**kern	**kern	**kern
*Ibass	*Itenor	*Icalto	*Icant
!Bassus	!Tenor	!Altus	!Cantus
*clefF4	*clefGv2	*clefG2	*clefG2
*k[b-]	*k[b-]	*k[b-]	*k[b-]
*G:dor	*G:dor	*G:dor	*G:dor
*M4/2	*M4/2	*M4/2	*M4/2
=1	=1	=1	=1
1A	0r	0r	0r
[1G	.	.	.
=2	=2	=2	=2
2G]	1r	0r	0r
2F	.	.	.
2B-	1d	.	.
2B-	.	.	.
=3	=3	=3	=3
1A	1.c	0r	0r
1G	.	.	.
.	2B-	.	.
=4	=4	=4	=4
2r	2e-	0r	0r
2c	2e-	.	.
2B-	1d	.	.
2G	.	.	.
=5	=5	=5	=5
0B-	2G	0r	0r
.	2g	.	.
.	2f	.	.
.	2d	.	.
=6	=6	=6	=6
2.A	2f	1r	0r
.	2.e	.	.
4G	.	.	.
2F	.	1a	.
.	4d	.	.
2D	[2d	.	.
=7	=7	=7	=7
1E	2d]	1.g	0r
.	2c#	.	.
1D	1d	.	.
.	.	2f	.
=8	=8	=8	=8
2r	2G	2b-	1dd
2G	2g	2b-	.
2A	2e	1a	[1cc
2F	2f	.	.
=9	=9	=9	=9
1G	1d	1g	2cc]
.	.	.	2b-
2C	1c	2r	2ee-
2C	.	2g	2ee-
=10	=10	=10	=10
1G	1.B-	2g	1dd
.	.	2g	.
1G	.	[1b-	2g
.	4A	.	2dd
.	4G	.	.
=11	=11	=11	=11
0r	2B-	2b-]	2dd
.	2c	4a	2ee
.	.	4g	.
.	[1d	2f	1ff
.	.	2d	.
=12	=12	=12	=12
0r	2d]	2f	2dd
.	2c	2.g	2.ee
.	1B-	.	.
.	.	4f	4dd
.	.	2d	[2dd
=13	=13	=13	=13
1r	1A	1e	2dd]
.	.	.	2cc#
2r	1r	[1d	[1dd
[2G	.	.	.
=14	=14	=14	=14
2G]	2r	1d]	1dd]
2F	1d	.	.
2G	.	1r	1r
2A	2c	.	.
=15	=15	=15	=15
2B-	2d	0r	0r
4A	2e	.	.
4G	.	.	.
2F	4f	.	.
.	4e	.	.
2G	4d	.	.
.	4c	.	.
=16	=16	=16	=16
2D	4B-	1r	0r
.	4A	.	.
2F	1d	.	.
1E	.	2r	.
.	2c#	[2g	.
=17	=17	=17	=17
1D	2.d	2g]	2r
.	.	2f#	1dd
.	4c	.	.
1r	2B-	2g	.
.	2A	2a	2cc#
=18	=18	=18	=18
1r	1G	2b-	2dd
.	.	4a	2ee
.	.	4g	.
2r	1r	2f	4ff
.	.	.	4ee
[2G	.	2g	4dd
.	.	.	4cc
=19	=19	=19	=19
2G]	0r	2d	4b-
.	.	.	4cc
2F	.	2f	1dd
2G	.	1e	.
2A	.	.	2cc#
=20	=20	=20	=20
2.B-	2r	1d	1dd
.	1d	.	.
4B-	.	.	.
1A	.	2r	1r
.	2c#	[2a	.
=21	=21	=21	=21
2B-	2d	2a]	1r
2c	2e	2g	.
2F	2.f	2a	2r
2D	.	2a	[2dd
.	4f	.	.
=22	=22	=22	=22
1A	1e	2.a	2dd]
.	.	.	2cc#
.	.	4g	.
1r	2d	2f	2dd
.	2c#	[2e	2ee
=23	=23	=23	=23
0r	1d	4e]	2.ff
.	.	4d	.
.	.	1d	.
.	.	.	4ff
.	1A	.	1ee
.	.	2c#	.
=24	=24	=24	=24
2r	2r	1d	2.dd
2G	2B-	.	.
.	.	.	4cc
2G	2B-	1r	2b-
2A	2c	.	2a
=25	=25	=25	=25
1B-	1d	2r	2f
.	.	2d	2g
1A	1c	2e	1a
.	.	2f	.
=26	=26	=26	=26
1.G	1d	1.g	2r
.	.	.	2.b-
.	1r	.	.
.	.	.	4b-
2A	.	4f	2cc
.	.	4e	.
=27	=27	=27	=27
2.B-	2r	1d	2.dd
.	2B-	.	.
4A	.	.	4cc
2G	2B-	2d	2b-
4F	2c	[2f	2a
4E	.	.	.
=28	=28	=28	=28
2D	2d	2f]	2b-
2F	2A	2c	2.a
2E-	2B-	2e-	.
.	.	.	4g
2C	2c	2e-	[2g
=29	=29	=29	=29
2.D	2A	1d	2g]
.	2A	.	2f#
4D	.	.	.
1G	[1G	2r	1g
.	.	[2d	.
=30	=30	=30	=30
0r	1G]	2d]	2r
.	.	2G	1dd
.	1r	2.g	.
.	.	.	2g
.	.	4a	.
=31	=31	=31	=31
0r	0r	2b-	2dd
.	.	4a	2ee
.	.	4g	.
.	.	2f	2ff
.	.	2a	[2ee
=32	=32	=32	=32
2r	0r	2.g	4ee]
.	.	.	4dd
1G	.	.	1dd
.	.	4f	.
.	.	1e	.
2C	.	.	[2cc
=33	=33	=33	=33
1G	2r	1d	2cc]
.	1d	.	4b-
.	.	.	4a
2G	.	1r	2.b-
[2B-	2G	.	.
.	.	.	8a
.	.	.	8g
=34	=34	=34	=34
2B-]	2d	0r	2f
4A	2e	.	2g
4G	.	.	.
4F	2f	.	1a
4G	.	.	.
2A	[2e	.	.
=35	=35	=35	=35
2.G	4e]	1r	1r
.	4d	.	.
.	1d	.	.
4F	.	.	.
2E	.	1g	2r
2E	2c#	.	2g
=36	=36	=36	=36
1D	1d	2g	2b-
.	.	2f#	2a
1r	2r	1g	2.b-
.	[2G	.	.
.	.	.	4cc
=37	=37	=37	=37
1G	2G]	0d	1dd
.	1B-	.	.
2G	.	.	1dd
2F#	2A	.	.
=38	=38	=38	=38
2G	2.B-	2r	2r
2G	.	1g	1b-
.	4c	.	.
1D	1d	.	.
.	.	2f#	2a
=39	=39	=39	=39
1r	2r	1g	1b-
.	1g	.	.
2r	.	1d	2a
[2d	2f	.	2dd
=40	=40	=40	=40
2d]	2d	1a	2ff
2c#	2e	.	1ee
1d	1f	2a	.
.	.	2a	[2dd
=41	=41	=41	=41
2A	1e	1a	2dd]
2A	.	.	2cc#
2.B-	2.d	1f	[1dd
4A	4c	.	.
=42	=42	=42	=42
2G	2B-	1r	1dd]
2F	2A	.	.
1G	1B-	2r	1r
.	.	[2g	.
=43	=43	=43	=43
1D	1A	2g]	2r
.	.	2f	1dd
1r	2B-	2d	.
.	2c	2e	2cc
=44	=44	=44	=44
2r	1d	2.f	1a
1d	.	.	.
.	.	4e	.
.	1r	4f	2b-
.	.	4g	.
2c	.	[2a	[2cc
=45	=45	=45	=45
2A	1r	2a]	4cc]
.	.	.	4b-
2B-	.	1g	2g
2c	2r	.	1a
2d	[2d	2f	.
=46	=46	=46	=46
1A	2d]	2e	1a
.	2c	1a	.
1r	2A	.	1r
.	2B-	2g	.
=47	=47	=47	=47
0r	2c	2e	1r
.	2d	2f	.
.	2e	2g	1cc
.	2f	2a	.
=48	=48	=48	=48
1r	1d	1f	2ff
.	.	.	1ff
1C	1c	2g	.
.	.	[2g	2ee-
=49	=49	=49	=49
2G	2r	2g]	2.dd
1G	2G	1d	.
.	.	.	4cc
.	2d	.	2b-
2F	[2d	[2f	2a
=50	=50	=50	=50
2D	4d]	4f]	2b-
.	4d	4f	.
2F	2A	2c	2.a
2E-	2B-	2e-	.
.	.	.	4g
2C	2c	2e-	[2g
=51	=51	=51	=51
1D	1A	0d	2g]
.	.	.	2f#
1G	[1G	.	1g
=52	=52	=52	=52
0r	1G]	2r	2r
.	.	2d	2g
.	1r	1g	1b-
=53	=53	=53	=53
1r	0r	2f	2a
.	.	2g	2b-
1A	.	2e	2cc
.	.	2e	2cc
=54	=54	=54	=54
1B-	2r	1d	1dd
.	2d	.	.
2A	1f	1r	1r
2B-	.	.	.
=55	=55	=55	=55
2G	2e	0r	1r
2A	2f	.	.
1B-	2.d	.	2r
.	.	.	[2dd
.	4e	.	.
=56	=56	=56	=56
2.A	2f	2r	2dd]
.	2e	1a	1cc
4G	.	.	.
2F	1d	.	.
2G	.	[2g	2b-
=57	=57	=57	=57
2D	1d	2g]	2.a
1d	.	2f	.
.	.	.	4g
.	1r	2d	2f
[2c	.	[2e	[2g
=58	=58	=58	=58
2c]	0r	4e]	4g]
.	.	4d	4f
2B-	.	1d	2d
2.A	.	.	1e
.	.	2c	.
4G	.	.	.
=59	=59	=59	=59
2F	0r	2A	1d
2.G	.	2.B-	.
.	.	.	1dd
4F	.	4c	.
2D	.	[2d	.
=60	=60	=60	=60
1E	2r	2d]	2.g
.	1g	2c#	.
.	.	.	4a
1D	.	1d	2b-
.	[2f	.	2a
=61	=61	=61	=61
1C	2f]	2r	1cc
.	2e	2g	.
1G	2.d	1g	2.b-
.	4c	.	4a
=62	=62	=62	=62
2G	2B-	2d	4b-
.	.	.	4g
2F	2.c	2f	2.a
2C	.	2e-	.
.	4B-	.	4g
2E-	2G	2c	[2g
=63	=63	=63	=63
1D	1A	0d	2g]
.	.	.	2f#
1r	1G	.	1g
=64	=64	=64	=64
0G	1r	1r	1r
.	1g	[1d	1b-
=65	=65	=65	=65
1G	1g	1d]	1b-
1G	1g	1d	1b-
=66	=66	=66	=66
1B-	1f	1d	1dd
1c	1e-	1g	1cc
=67	=67	=67	=67
0G	1d	2g	1.b-
.	.	1g	.
.	2r	.	.
.	2d	4f	4a
.	.	4e	4g
=68	=68	=68	=68
2r	2d	1f	0a
2D	2d	.	.
1D	2.f	1d	.
.	8e	.	.
.	8d	.	.
=69	=69	=69	=69
2C	2e-	1r	0r
2BB-	1d	.	.
1E-	.	[1g	.
.	2c	.	.
=70	=70	=70	=70
1D	1d	2g]	1.a
.	.	2f	.
2r	1r	2f	.
[2A	.	4e	2a
.	.	4d	.
=71	=71	=71	=71
2A]	0r	2e	1cc
2A	.	2c	.
2G	.	[1d	2b-
2F	.	.	[2a
=72	=72	=72	=72
2B-	1.d	2d]	2a]
2B-	.	2d	2g
[1A	.	[1e	[1a
.	4c	.	.
.	4B	.	.
=73	=73	=73	=73
1A]	1c#	1e]	1a]
[1D	2.d	[1a	1r
.	4e	.	.
=74	=74	=74	=74
1D]	1f	1a]	1.dd
[1A	[1e	[1a	.
.	.	.	4cc
.	.	.	4b
=75	=75	=75	=75
1A]	1e]	1a]	1cc#
1D	1f	1a	1dd
=76	=76	=76	=76
1G	1d	1g	1b
[1C	[1e-	[1g	1cc
=77	=77	=77	=77
1C]	1e-]	1g]	1cc
[1G	[1d	[1g	[1b
=78	=78	=78	=78
1G_	1d_	1g_	1b_
1G_	1d_	1g_	1b_
=79	=79	=79	=79
1G]	1d]	1g]	1b]
*	*	*	*-
!! Crucifixus
*Ibass	*Itenor	*Icalto
!Bassus	!Tenor	!Altus
*clefF4	*clefGv2	*clefG2
*k[b-]	*k[b-]	*k[b-]
*G:dor	*G:dor	*G:dor
*M4/2	*M4/2	*M4/2
=80	=80	=80
1.G	0r	0r
2F#	.	.
=81	=81	=81
1G	1r	0r
2D	[1d	.
[2F	.	.
=82	=82	=82
2F]	2d]	0r
2E	2c#	.
2.D	1d	.
4E	.	.
=83	=83	=83
4F	2A	0r
4G	.	.
1A	1c	.
[2G	2B-	.
=84	=84	=84
2G]	1A	0r
2F	.	.
2.B-	2.G	.
4A	4A	.
=85	=85	=85
2G	4B-	1r
.	4c	.
2F	1d	.
1E	.	[1g
.	2c#	.
=86	=86	=86
1D	1d	2g]
.	.	2f#
1r	2.G	1g
.	4A	.
=87	=87	=87
0r	4B-	2d
.	4c	.
.	1d	1f
.	[2c	2e-
=88	=88	=88
1.G	2c]	0d
.	4B-	.
.	4A	.
.	2B-	.
2F#	2A	.
=89	=89	=89
1G	2.B-	2.d
.	4c	4e
2D	2d	4f
.	.	4g
[2F	[2c	[2a
=90	=90	=90
2F]	4c]	2a]
.	4B-	.
2E-	2G	1g
1D	1A	.
.	.	2f#
=91	=91	=91
1G	1G	0g
[1C	2r	.
.	2c	.
=92	=92	=92
1C]	1.e-	2r
.	.	2g
1G	.	[1b-
.	2d	.
=93	=93	=93
0r	2B-	2b-]
.	2c	2a
.	2d	2f
.	4c	2g
.	4B-	.
=94	=94	=94
1r	2c	2a
.	4B-	2.b-
.	4c	.
2r	4d	.
.	4e	4a
[2B-	[2f	2f
=95	=95	=95
2B-]	2f]	1g
2c	2e	.
2.d	1f	[1f
8c	.	.
8B-	.	.
=96	=96	=96
2A	2r	1f]
2B-	1B-	.
2G	.	2r
2F	2c	[2f
=97	=97	=97
2.B-	2.d	2f]
.	.	2g
8A	8c	.
8G	8B-	.
2F	2A	2.a
[2A	[2c	.
.	.	8g
.	.	8f
=98	=98	=98
2A]	2c]	2e
2D	4B-	2f
.	4A	.
2G	2B-	2d
2C	2c	[2g
=99	=99	=99
1D	1A	2g]
.	.	2f#
2r	1G	[1g
2G	.	.
=100	=100	=100
2G	2r	1g]
2G	2G	.
2.B-	2G	2r
.	2G	2d
4A	.	.
=101	=101	=101
1G	1B-	2d
.	.	2d
2.F	2A	1f
.	[2d	.
4G	.	.
=102	=102	=102
1A	2d]	1e
.	2c#	.
1D	2d	2r
.	[2f	[2a
=103	=103	=103
1r	2f]	2a]
.	2e	2g
2r	1d	2a
[2G	.	[2b-
=104	=104	=104
2G]	0d	2b-]
2F#	.	2a
2G	.	1g
[2B-	.	.
=105	=105	=105
2B-]	2r	1f
2A	2c	.
1G	2d	2r
.	2B-	2g
=106	=106	=106
1F	2c	1a
.	1d	.
1r	.	2f
.	4c	2g
.	4B-	.
=107	=107	=107
0r	4A	2a
.	4B-	.
.	4c	4g
.	4d	4f
.	2e	2g
.	[2f	[2a
=108	=108	=108
2r	4f]	2a]
.	4e	.
2G	1d	4g
.	.	4f
1A	.	1e
.	2c#	.
=109	=109	=109
2F	1d	[0d
2G	.	.
2.B-	2r	.
.	[2G	.
4A	.	.
=110	=110	=110
2G	2G]	1d]
2F	2A	.
[1G	1B-	2r
.	.	[2d
=111	=111	=111
2G]	2B-	2d]
4F	2c	2e
4E	.	.
1D	2.d	1f
.	4c	.
=112	=112	=112
1r	2d	2f
.	2e	2g
2r	2.f	2.a
[2D	.	.
.	4e	4g
=113	=113	=113
2D]	2d	4a
.	.	4b-
2E	4c	2.cc
.	4B-	.
1F	2A	.
.	.	4b-
.	[2f	[2a
=114	=114	=114
2F	4f]	2a]
.	4e	.
2G	1d	4g
.	.	4f
2.A	.	[1e
.	4c	.
4G	4B	.
=115	=115	=115
4A	2c	2e]
4B	.	.
1c	2F	2f
.	1G	1d
4B-	.	.
4A	.	.
=116	=116	=116
1B-	2r	2r
.	2d	2d
1A	2c	2e
.	2A	2f
=117	=117	=117
1G	2.B-	2.g
.	4c	4e
2r	2d	2f
2c	[2e-	[2g
=118	=118	=118
2B-	4e-]	4g]
.	4d	4f
2G	1d	2g
2.A	.	1e
.	2c#	.
4G	.	.
=119	=119	=119
2F	[0d	1d
2.B-	.	.
.	.	2r
4A	.	.
4G	.	2g
4F	.	.
=120	=120	=120
1G	1d]	2g
.	.	2g
[1D	1r	2f
.	.	2d
=121	=121	=121
1D]	1d	1.f
1r	2d	.
.	2d	4e
.	.	4d
=122	=122	=122
1A	2c	1.e
.	2A	.
2A	2c	.
2A	2c	2f
=123	=123	=123
2G	1d	2g
2F	.	1a
2B-	2r	.
2B-	2d	2g
=124	=124	=124
1A	2e	[0a
.	2c	.
1r	2d	.
.	[2f	.
=125	=125	=125
2r	2f]	1a]
2A	2e	.
2B-	1d	1r
2G	.	.
=126	=126	=126
2A	1c	1r
1c	.	.
.	1d	2r
2B-	.	2g
=127	=127	=127
1A	2r	2a
.	2c	2f
1G	2d	2g
.	2B-	[2b-
=128	=128	=128
1F	2c	2b-]
.	1f	2a
1r	.	1g
.	2e	.
=129	=129	=129
0F	2d	1f
.	2c	.
.	1f	1a
=130	=130	=130
1C	2e	1g
.	1e	.
1D	.	1f
.	[2d	.
=131	=131	=131
1.A	2d]	1.e
.	4c	.
.	4B	.
.	2c#	.
2G	2c#	2e
=132	=132	=132
1D	1d	0d
1r	2r	.
.	[2d	.
=133	=133	=133
1G	2d]	0r
.	2e	.
2A	2.f	.
[2B-	.	.
.	4e	.
=134	=134	=134
2B-]	2d	2r
4A	4c	2r
4G	4B-	.
2F	2A	1d
[2G	[2B-	.
=135	=135	=135
2G]	2B-]	2e
4F	4A	1f
4E	4G	.
1D	2.F	.
.	.	4e
.	4G	4d
=136	=136	=136
1r	2A	2c
.	2.B-	2.d
2r	.	.
.	4A	4e
2BB-	2F	[2f
=137	=137	=137
2BB-	1G	4f]
.	.	8e
.	.	8d
2C	.	2e
2.D	1F	1f
4E	.	.
=138	=138	=138
2F	2r	1d
1G	2B-	.
.	2B-	2r
2F	2c	2f
=139	=139	=139
1B-	2.d	2f
.	.	2g
.	4e	.
1A	2f	2.a
.	4e	.
.	4d	4b-
=140	=140	=140
1r	4e	2cc
.	4f	.
.	2g	4b-
.	.	4a
2r	2d	2b-
2F	[2f	[2a
=141	=141	=141
2F	4f]	2a]
.	4e	.
2G	1d	4g
.	.	4f
1A	.	1e
.	2c#	.
=142	=142	=142
2.B-	1d	0d
4A	.	.
4G	2r	.
4F	.	.
[2G	2B-	.
=143	=143	=143
2G]	2B-	2r
4F	2c	2f
4E	.	.
2D	[1d	2f
2G	.	2g
=144	=144	=144
1F	2d]	2.a
.	4c	.
.	4B-	4g
2r	2c	2a
2BB-	[2d	[2b-
=145	=145	=145
2BB-	2d]	2b-]
2C	4c	4a
.	4B-	4g
2.D	2A	4f
.	.	4e
.	[2f	4d
4E	.	4c
=146	=146	=146
2F	4f]	4d
.	4e	4c
1G	4d	4B-
.	4c	4A
.	2B-	2G
2C	2c	[2g
=147	=147	=147
1D	1A	2g]
.	.	2f#
[1G	[1G	[1g
=148	=148	=148
1G_	1G_	1g_
1G_	1G_	1g_
=149	=149	=149
1G]	1G]	1g]
*-	*-	*-
!! Et in Spiritum
**kern	**kern	**kern	**kern
*Ibass	*Itenor	*Icalto	*Icant
!Bassus	!Tenor	!Altus	!Cantus
*clefF4	*clefGv2	*clefG2	*clefG2
*k[b-]	*k[b-]	*k[b-]	*k[b-]
*G:dor	*G:dor	*G:dor	*G:dor
*M4/2	*M4/2	*M4/2	*M4/2
=150	=150	=150	=150
1r	1.g	0r	1r
[1G	.	.	[1dd
.	2g	.	.
=151	=151	=151	=151
2G]	2g	0r	2dd]
2G	2g	.	2dd
2B-	1f	.	2dd
2B-	.	.	2dd
=152	=152	=152	=152
1c	1e-	1.g	1cc
[1G	1d	.	[1b-
.	.	2g	.
=153	=153	=153	=153
1G]	1.d	2g	2b-]
.	.	2g	4a
.	.	.	4g
2D	.	1f	2a
[2d	2d	.	[2b-
=154	=154	=154	=154
2d]	1A	2e	4b-]
.	.	.	4a
2c	.	2e	1a
2B-	2r	2d	.
2B-	[2d	2d	2g
=155	=155	=155	=155
1A	2d]	1e	2.a
.	2c#	.	.
.	.	.	4g
1r	2d	2r	2f
.	2A	[2a	[2e
=156	=156	=156	=156
2r	2c	2a]	2e]
1d	2B-	2g	2d
.	1A	2a	1e
2c#	.	2e	.
=157	=157	=157	=157
2d	1r	1f	2r
2A	.	.	1a
2c	2r	2e	.
2B-	[2d	2d	2g
=158	=158	=158	=158
2.A	2d]	1e	1a
.	2c#	.	.
4G	.	.	.
2F	1d	1r	2a
2G	.	.	[2b-
=159	=159	=159	=159
1D	2d	0r	2b-]
.	1f	.	2a
1r	.	.	2a
.	2e	.	2cc
=160	=160	=160	=160
0r	1d	1f	2b-
.	.	.	2.a
.	2c	2e	.
.	.	.	4g
.	2B-	2d	[2g
=161	=161	=161	=161
1r	1A	2.c	2g]
.	.	.	2f#
.	.	4d	.
2r	1G	2e-	[1g
[2G	.	2d	.
=162	=162	=162	=162
2G]	1r	2B-	0g]
2C	.	2c	.
1G	2r	1d	.
.	[2d	.	.
=163	=163	=163	=163
2F	2d]	0r	0r
2E	2G	.	.
4D	1d	.	.
4E	.	.	.
4F	.	.	.
4G	.	.	.
=164	=164	=164	=164
2A	2c	0r	0r
4D	2B-	.	.
4E	.	.	.
4F	4A	.	.
4G	4B-	.	.
4A	4c	.	.
4F	4A	.	.
=165	=165	=165	=165
2.G	4B-	2r	0r
.	4c	.	.
.	1d	1g	.
4F	.	.	.
2E	.	.	.
2E	2c#	2g	.
=166	=166	=166	=166
1D	0d	2f	2r
.	.	2d	1dd
1r	.	[1f	.
.	.	.	2dd
=167	=167	=167	=167
2r	0r	2f]	2cc
1A	.	4e	2a
.	.	4d	.
.	.	2e	2.cc
2A	.	2c	.
.	.	.	8b-
.	.	.	8a
=168	=168	=168	=168
2G	2r	2d	2b-
2F	1d	1f	1a
1B-	.	.	.
.	2d	4e	2g
.	.	4d	.
=169	=169	=169	=169
1A	2c	1e	0a
.	2c	.	.
2.D	1f	2r	.
.	.	2a	.
4E	.	.	.
=170	=170	=170	=170
2F	1d	2a	2r
2D	.	2a	2dd
1G	2r	2b-	2dd
.	2d	2b-	2dd
=171	=171	=171	=171
1D	2d	2.a	1ff
.	2d	.	.
.	.	4g	.
1r	2c	2a	2ee
.	2B-	[2b-	[2dd
=172	=172	=172	=172
1r	1e-	2b-]	2dd]
.	.	4a	2cc
.	.	4g	.
2r	1d	2.a	2.dd
[2d	.	.	.
.	.	4g	4cc
=173	=173	=173	=173
2d]	2r	2f	2b-
2c	1g	2e-	2cc
2.d	.	1d	1a
.	2f#	.	.
4c	.	.	.
=174	=174	=174	=174
2B-	2.g	0r	0r
2.c	.	.	.
.	4f	.	.
.	2e	.	.
4B-	.	.	.
4A	[2f	.	.
4G	.	.	.
=175	=175	=175	=175
2F	4f]	0r	0r
.	4e-	.	.
2F	4d	.	.
.	4c	.	.
4G	4B-	.	.
4A	4c	.	.
4B-	4d	.	.
4G	4B-	.	.
=176	=176	=176	=176
2A	2c	2r	0r
1G	2B-	2g	.
.	1A	2a	.
2F#	.	2a	.
=177	=177	=177	=177
1G	1G	1b-	2r
.	.	.	2dd
1r	1r	2a	2ee
.	.	2g	2ee
=178	=178	=178	=178
0r	0r	4f	1ff
.	.	4g	.
.	.	4a	.
.	.	4f	.
.	.	4g	2ee
.	.	4a	.
.	.	2b-	2dd
=179	=179	=179	=179
0r	0r	2a	4cc
.	.	.	4dd
.	.	2.g	4ee
.	.	.	4cc
.	.	.	4dd
.	.	4f	4ee
.	.	4d	[2ff
.	.	4e	.
=180	=180	=180	=180
2r	0r	2f	4ff]
.	.	.	4ee
2G	.	2g	1dd
2A	.	2e	.
2A	.	2e	2cc#
=181	=181	=181	=181
2.B-	2r	1d	1dd
.	2d	.	.
4B-	.	.	.
2A	2e	2r	1r
2G	2e	2g	.
=182	=182	=182	=182
4F	2f	2a	1r
4G	.	.	.
4A	2f	2a	.
4F	.	.	.
2G	2e	2.b-	2r
2G	2d	.	2dd
.	.	4b-	.
=183	=183	=183	=183
1C	4c	2a	2ee
.	4d	.	.
.	4e	2g	2ee
.	4c	.	.
1r	2d	4f	2.ff
.	.	4g	.
.	2d	4a	.
.	.	4f	4ff
=184	=184	=184	=184
2r	2c	4g	2ee
.	.	4a	.
2G	2d	2b-	2dd
2A	2f	2.a	4cc
.	.	.	4dd
2A	2e	.	4ee
.	.	4g	4cc
=185	=185	=185	=185
2.B-	2.d	1f	4dd
.	.	.	4ee
.	.	.	2.ff
4c	4e	.	.
2d	2f	1d	.
.	.	.	4ee
2G	2g	.	[2dd
=186	=186	=186	=186
2A	2e	0a	2dd]
2A	2e	.	2cc#
1D	1d	.	1dd
=187	=187	=187	=187
2r	2r	2r	2r
2D	2f	2a	2dd
2D	2f	2a	2dd
2D	2f	2a	2dd
=188	=188	=188	=188
1.A	1e	1a	2.cc
.	.	.	4b-
.	2c	1r	1a
2F	2d	.	.
=189	=189	=189	=189
2G	2e	2r	1r
2A	1f	1a	.
1B-	.	.	2r
.	4e	2g	[2dd
.	4d	.	.
=190	=190	=190	=190
1A	1e	2.a	2dd]
.	.	.	2cc#
.	.	4g	.
1r	1d	2f	2.dd
.	.	2d	.
.	.	.	4cc
=191	=191	=191	=191
0r	2r	2e-	2b-
.	1g	2c	2cc
.	.	1d	1a
.	2f#	.	.
=192	=192	=192	=192
2r	2.g	1G	1g
1G	.	.	.
.	4f	.	.
.	2e	2r	1r
2F	2f	[2c	.
=193	=193	=193	=193
2.G	2e	2c]	1r
.	2.d	2B-	.
4F	.	.	.
2E	.	2G	1cc
.	4c	.	.
2F	[2c	2A	.
=194	=194	=194	=194
1D	2c]	1F	1.ff
.	2B	.	.
1C	1c	2G	.
.	.	[2G	2ee-
=195	=195	=195	=195
1.G	2B-	4G]	2.dd
.	.	4A	.
.	4G	4B-	.
.	4A	4c	4cc
.	4B-	4d	2b-
.	4c	4e	.
2F	[2d	[2f	2a
=196	=196	=196	=196
2D	4d]	2f]	2b-
.	4c	.	.
2F	2A	2c	2.a
2E-	2B-	1e-	.
.	.	.	4g
2C	2c	.	[2g
=197	=197	=197	=197
1D	1A	0d	2g]
.	.	.	2f#
1r	1G	.	1g
=198	=198	=198	=198
0G	0g	1r	0b-
.	.	[1d	.
=199	=199	=199	=199
1B-	1f	2d]	1dd
.	.	2d	.
1c	1e-	1g	1cc
=200	=200	=200	=200
0G	0d	0g	1.b-
.	.	.	4a
.	.	.	4g
=201	=201	=201	=201
1.D	2r	1.f	1a
.	1d	.	.
.	.	.	2r
2D	2d	2f	[2a
=202	=202	=202	=202
2D	2d	2f	2a]
2D	2d	2f	2a
1A	1c	2.e	2a
.	.	.	2a
.	.	4f#	.
=203	=203	=203	=203
1G	2d	1g	1b-
.	2.e-	.	.
1r	.	1g	1cc
.	4d	.	.
.	[2c	.	.
=204	=204	=204	=204
0G	2c]	1.g	1.dd
.	4B-	.	.
.	4A	.	.
.	2B-	.	.
.	2d	2g	2b-
=205	=205	=205	=205
1E-	2.e-	1g	2cc
.	.	.	1b-
.	4d	.	.
[1F	[1c	[1f	.
.	.	.	4a
.	.	.	4g
=206	=206	=206	=206
1F]	1c]	1f]	1a
[1BB-	1B-	2r	[1b-
.	.	2f	.
=207	=207	=207	=207
1BB-]	2r	1f	1b-]
.	2B-	.	.
1r	2B-	2g	1r
.	2c	[2a	.
=208	=208	=208	=208
0r	2.d	4a]	1r
.	.	4g	.
.	.	4f	.
.	8c	4e	.
.	8B-	.	.
.	2A	1f	2r
.	2B-	.	2b-
=209	=209	=209	=209
0r	2G	2g	2b-
.	2A	2e	2cc
.	4B-	[1d	2.dd
.	4c	.	.
.	4d	.	.
.	4e	.	8cc
.	.	.	8b-
=210	=210	=210	=210
1r	2f	2d]	2a
.	2.g	2G	2.b-
2r	.	1d	.
.	4f	.	4a
2B-	[2f	.	2f
=211	=211	=211	=211
2B-	2f]	1r	1g
2c	2e	.	.
2.d	[1f	2B-	1f
.	.	2B-	.
8c	.	.	.
8B-	.	.	.
=212	=212	=212	=212
2A	1f]	2c	0r
2.B-	.	2.d	.
.	[1d	.	.
4A	.	8c	.
.	.	8B-	.
2F	.	2A	.
=213	=213	=213	=213
2.G	1d]	2B-	2r
.	.	2G	2b-
4F	.	.	.
2E-	1G	[1g	2b-
2E-	.	.	2cc
=214	=214	=214	=214
1D	1A	2g]	2.dd
.	.	4f	.
.	.	4e	8cc
.	.	.	8b-
1r	1r	2f	2a
.	.	[2g	[2b-
=215	=215	=215	=215
0r	2r	4g]	4b-]
.	.	4f	4a
.	2B-	1f	2f
.	2B-	.	1g
.	2c	2e	.
=216	=216	=216	=216
0r	2.d	2.f	1f
.	8c	4g	.
.	8B-	.	.
.	2A	2a	2.ff
.	[2B-	[2d	.
.	.	.	4ee-
=217	=217	=217	=217
2r	4B-]	4d]	4dd
.	4A	4e	4cc
2BB-	2F	1f	1dd
2BB-	1G	.	.
2C	.	2e	4cc
.	.	.	4b-
=218	=218	=218	=218
2.D	2F	2.f	2.a
.	2.f	.	.
4E	.	4e	4g
2F	.	4d	2a
.	4e	4c	.
[2G	4d	4B-	[2b-
.	4c	4A	.
=219	=219	=219	=219
2G]	2B-	1G	4b-]
.	.	.	4a
2C	2c	.	1g
2D	2A	[1d	.
2D	2A	.	2f#
=220	=220	=220	=220
0G	2G	1d]	1g
.	2.g	.	.
.	.	1r	2r
.	4f	.	.
.	2d	.	[2dd
=221	=221	=221	=221
2.d	2.f	1r	4dd]
.	.	.	4cc
.	.	.	2a
4c	4e	.	.
2A	4c	2.a	2.cc
.	4d	.	.
[2c	4e	.	.
.	4f	4g	4b-
=222	=222	=222	=222
4c]	2.g	2e	2g
4B-	.	.	.
2G	.	2.g	2.b-
.	4f	.	.
2.B-	2d	.	.
.	.	4f	4a
.	[2f	2d	4f
4A	.	.	4g
=223	=223	=223	=223
4F	4f]	2f	4a
4G	4e	.	4b-
4A	4c	2.e	2cc
4B-	4d	.	.
2c	4e	.	2g
.	4c	4f	.
[2G	2d	2g	[2b-
=224	=224	=224	=224
4G]	2B-	2.d	4b-]
4F	.	.	4a
2D	2.d	.	2f
.	.	4c	.
2.F	.	2A	2.a
.	4c	.	.
.	2A	[2c	.
4E	.	.	4g
=225	=225	=225	=225
2C	2c	4c]	2e
.	.	4B-	.
2.E-	2B-	4G	2.g
.	.	4A	.
.	2G	1B-	.
4D	.	.	4f
4BB-	[2d	.	4d
4C	.	.	4e
=226	=226	=226	=226
4D	2d]	2.A	4f
4E	.	.	4g
2F	2.c	.	2.a
.	.	4B-	.
2C	.	1c	.
.	4B-	.	4g
2E-	2G	.	[2g
=227	=227	=227	=227
1D	1A	1d	2g]
.	.	.	2f#
[1G	[1G	[1d	[1g
=228	=228	=228	=228
1G_	1G_	1d_	1g_
1G_	1G_	1d_	1g_
=229	=229	=229	=229
1G]	1G]	1d]	1g]
==	==	==	==
*-	*-	*-	*-
!!!CDT: 1525/^1526/-1594/2/2
!!!OCY: Italia
!!!AGN: Mass (Parody)
!!!AST: renaissance, vocal
!!!ASW: Motet 1532 (Silva)
!!!PWK: Masses, Book I
!!!RNB: Cadence finals: D
!!!YOR: Le Opere Complete, v. 1, p. 35
!!!YOO: Rome, Italy: Fratelli Scalera
!!!END: 1992//
!!!EED: John Miller
!!!YEC: Copyright 2000, John Miller
!!!YEN: United States of America
!!!YEM: Rights to all derivative electronic formats reserved.
!!!YEM: Refer to licensing agreement for further details.
!!!YEM: This file must be accompanied by the licensing agreement.
!!!YEM: A copy of the licensing agreement may be found at http://www.music-cog.ohio-state.edu/HumdrumDatabases/Palestrina/license.txt
!!!EMD: converted to Humdrum by Bret Aarden
